resources/haticons/SVG/assignment_ind.svg

<!-- Generated by IcoMoon.io -->
<svg version="1.1" xmlns="http://www.w3.org/2000/svg" width="24" height="24" viewBox="0 0 24 24">
<title>assignment_ind</title>
<path d="M18 18.984v-1.406q0-1.359-2.063-2.227t-3.938-0.867-3.938 0.867-2.063 2.227v1.406h12zM12 6.984q-1.219 0-2.109 0.891t-0.891 2.109 0.891 2.109 2.109 0.891 2.109-0.891 0.891-2.109-0.891-2.109-2.109-0.891zM12 3q-0.422 0-0.703 0.281t-0.281 0.703 0.281 0.727 0.703 0.305 0.703-0.305 0.281-0.727-0.281-0.703-0.703-0.281zM18.984 3q0.797 0 1.406 0.609t0.609 1.406v13.969q0 0.797-0.609 1.406t-1.406 0.609h-13.969q-0.797 0-1.406-0.609t-0.609-1.406v-13.969q0-0.797 0.609-1.406t1.406-0.609h4.172q0.328-0.891 1.078-1.453t1.734-0.563 1.734 0.563 1.078 1.453h4.172z"></path>
</svg>

<svg xmlns="http://www.w3.org/2000/svg" width="24" height="24"><path d="M18 18.984v-1.406q0-1.359-2.063-2.227t-3.938-.867-3.938.867-2.063 2.227v1.406h12zm-6-12q-1.219 0-2.109.891T9 9.984t.891 2.109 2.109.891 2.109-.891T15 9.984t-.891-2.109T12 6.984zM12 3q-.422 0-.703.281t-.281.703.281.727.703.305.703-.305.281-.727-.281-.703T12 3zm6.984 0q.797 0 1.406.609t.609 1.406v13.969q0 .797-.609 1.406t-1.406.609H5.015q-.797 0-1.406-.609T3 18.984V5.015q0-.797.609-1.406T5.015 3h4.172q.328-.891 1.078-1.453t1.734-.563 1.734.563T14.811 3h4.172z"/></svg>
